src/assets/icons/company.svg

<?xml version="1.0" encoding="iso-8859-1"?>
<!-- Generator: Adobe Illustrator 19.0.0, SVG Export Plug-In . SVG Version: 6.00 Build 0)  -->
<svg version="1.1" id="Capa_1" xmlns="http://www.w3.org/2000/svg" xmlns:xlink="http://www.w3.org/1999/xlink" x="0px" y="0px"
	 viewBox="0 0 479.995 479.995" style="enable-background:new 0 0 479.995 479.995;" xml:space="preserve">
<g>
	<g>
		<path d="M466.35,218.344l-42.344,42.344L355.318,192l42.344-42.344l-11.312-11.312l-48,48L300.694,224H179.318l-37.656-37.656
			l-48-48L82.35,149.656L124.694,192l-68.688,68.688l-42.344-42.344L2.35,229.656l48,48l40,40l42.4,42.176l-6.4,6.4
			c-9.707,9.6-9.793,25.252-0.193,34.959c0.064,0.065,0.128,0.129,0.193,0.193c4.457,4.416,10.417,6.987,16.688,7.2
			c0.231,6.259,2.847,12.192,7.312,16.584c4.459,4.413,10.418,6.984,16.688,7.2c0.244,6.269,2.881,12.207,7.368,16.592
			c4.459,4.413,10.418,6.984,16.688,7.2c0.231,6.259,2.847,12.192,7.312,16.584c9.772,9.654,25.492,9.654,35.264,0l6.336-6.344
			l6.336,6.296c9.763,9.745,25.576,9.731,35.321-0.032c4.425-4.433,7.023-10.366,7.279-16.624c6.28-0.227,12.242-2.815,16.696-7.248
			c4.463-4.419,7.075-10.372,7.304-16.648c6.281-0.23,12.243-2.821,16.696-7.256c4.463-4.419,7.075-10.372,7.304-16.648
			c13.733-0.474,24.481-11.991,24.006-25.724c-0.218-6.316-2.832-12.313-7.31-16.772l-6.064-6.04l42.072-42.072l40-40l48-48
			L466.35,218.344z M67.318,272l68.688-68.688L164.694,232l-68.688,68.688L67.318,272z M150.406,390.008
			c-3.536,3.532-9.264,3.532-12.8,0c-3.433-3.384-3.473-8.91-0.089-12.343c0.029-0.03,0.059-0.06,0.089-0.089l6.504-6.448
			l12.696,12.544L150.406,390.008z M174.302,413.824c-3.531,3.45-9.173,3.443-12.696-0.016c-3.435-3.394-3.469-8.93-0.074-12.366
			c0.025-0.025,0.049-0.05,0.074-0.074l6.472-6.4l12.624,12.544L174.302,413.824z M198.406,437.6c-3.539,3.523-9.261,3.523-12.8,0
			c-3.433-3.384-3.473-8.91-0.089-12.343c0.029-0.03,0.059-0.06,0.089-0.089l6.448-6.4l12.616,12.544L198.406,437.6z
			 M222.406,461.392c-3.532,3.481-9.204,3.481-12.736,0c-3.433-3.384-3.473-8.91-0.089-12.343c0.029-0.03,0.059-0.06,0.089-0.089
			l6.4-6.36l12.616,12.544L222.406,461.392z M342.418,389.628c-0.015,0.015-0.029,0.029-0.044,0.044l0.032,0
			c-3.516,3.49-9.188,3.49-12.704,0l-12-11.952c-3.13-3.119-8.197-3.11-11.316,0.02s-3.11,8.197,0.02,11.316l12,11.952
			c3.471,3.446,3.49,9.054,0.044,12.524c-0.015,0.015-0.029,0.029-0.044,0.044c-3.516,3.49-9.188,3.49-12.704,0l-12-11.952
			c-3.13-3.119-8.197-3.11-11.316,0.02s-3.11,8.197,0.02,11.316l12,11.952c3.471,3.446,3.49,9.054,0.044,12.524
			c-0.015,0.015-0.029,0.029-0.044,0.044c-3.516,3.49-9.188,3.49-12.704,0l-12-11.952c-3.13-3.119-8.197-3.11-11.316,0.02
			s-3.11,8.197,0.02,11.316l12,11.952c3.471,3.446,3.49,9.054,0.044,12.524c-0.015,0.015-0.029,0.029-0.044,0.044
			c-3.52,3.487-9.192,3.487-12.712,0L107.334,312l72-72h25.688l-58.72,60.096c-3.063,3.134-3.034,8.149,0.064,11.248
			c9.915,10.014,23.228,15.941,37.304,16.608c14.164,0.75,27.981-4.552,38.008-14.584c0.354-0.35,0.672-0.733,0.952-1.144
			l2.896-4.248c17.275,13.62,39.794,18.672,61.232,13.736l55.616,55.392C345.844,380.55,345.864,386.158,342.418,389.628z
			 M336.302,348.44l-33.56-33.424l6.064-4.616c0.285-0.222,0.552-0.465,0.8-0.728l8-8l-11.312-11.312l-7.608,7.608l-6.92,5.216
			c-21.36,9.137-46.148,4.032-62.16-12.8c-3.124-3.125-8.189-3.125-11.314-0.002c-0.352,0.352-0.67,0.735-0.95,1.146l-7.56,11.064
			c-6.837,6.472-16.021,9.87-25.424,9.408c-7.354-0.379-14.465-2.764-20.56-6.896L227.374,240h73.32l72,72L336.302,348.44z
			 M384.006,300.688L315.318,232l28.688-28.688L412.694,272L384.006,300.688z"/>
	</g>
</g>
<g>
	<g>
		<rect x="88.006" y="264" width="16" height="16"/>
	</g>
</g>
<g>
	<g>
		<rect x="376.006" y="264" width="16" height="16"/>
	</g>
</g>
<g>
	<g>
		<path d="M256.006,144c35.33-0.04,63.96-28.67,64-64c0-4.418-3.582-8-8-8h-16c-18.396,0.01-35.892,7.959-48,21.808V64h8
			c30.913-0.035,55.965-25.087,56-56c0-4.418-3.582-8-8-8h-16c-19.687,0.031-37.912,10.398-48,27.304
			c-10.088-16.906-28.313-27.273-48-27.304h-16c-4.418,0-8,3.582-8,8c0.035,30.913,25.087,55.965,56,56h8v29.808
			c-12.108-13.849-29.604-21.798-48-21.808h-16c-4.418,0-8,3.582-8,8c0.04,35.33,28.67,63.96,64,64h8v12.688L180.694,208h22.624
			l36.688-36.688L276.694,208h22.624l-51.312-51.312V144H256.006z M296.006,88h7.336c-3.935,23.08-23.923,39.971-47.336,40h-7.336
			C252.604,104.92,272.592,88.029,296.006,88z M288.006,16h7.2c-3.825,18.613-20.198,31.979-39.2,32h-7.2
			C252.63,29.387,269.004,16.021,288.006,16z M224.006,48c-19.002-0.021-35.375-13.387-39.2-32h7.2
			c19.002,0.021,35.375,13.387,39.2,32H224.006z M224.006,128c-23.413-0.029-43.401-16.92-47.336-40h7.336
			c23.413,0.029,43.401,16.92,47.336,40H224.006z"/>
	</g>
</g>
<g>
</g>
<g>
</g>
<g>
</g>
<g>
</g>
<g>
</g>
<g>
</g>
<g>
</g>
<g>
</g>
<g>
</g>
<g>
</g>
<g>
</g>
<g>
</g>
<g>
</g>
<g>
</g>
<g>
</g>
</svg>

<svg width="480" height="480" viewBox="0 0 480 480" fill="none" xmlns="http://www.w3.org/2000/svg">
<g clip-path="url(#clip0)">
<path d="M466.35 218.344L424.006 260.688L355.318 192L397.662 149.656L386.35 138.344L338.35 186.344L300.694 224H179.318L141.662 186.344L93.6621 138.344L82.3501 149.656L124.694 192L56.0061 260.688L13.6621 218.344L2.3501 229.656L50.3501 277.656L90.3501 317.656L132.75 359.832L126.35 366.232C116.643 375.832 116.557 391.484 126.157 401.191C126.221 401.256 126.285 401.32 126.35 401.384C130.807 405.8 136.767 408.371 143.038 408.584C143.269 414.843 145.885 420.776 150.35 425.168C154.809 429.581 160.768 432.152 167.038 432.368C167.282 438.637 169.919 444.575 174.406 448.96C178.865 453.373 184.824 455.944 191.094 456.16C191.325 462.419 193.941 468.352 198.406 472.744C208.178 482.398 223.898 482.398 233.67 472.744L240.006 466.4L246.342 472.696C256.105 482.441 271.918 482.427 281.663 472.664C286.088 468.231 288.686 462.298 288.942 456.04C295.222 455.813 301.184 453.225 305.638 448.792C310.101 444.373 312.713 438.42 312.942 432.144C319.223 431.914 325.185 429.323 329.638 424.888C334.101 420.469 336.713 414.516 336.942 408.24C350.675 407.766 361.423 396.249 360.948 382.516C360.73 376.2 358.116 370.203 353.638 365.744L347.574 359.704L389.646 317.632L429.646 277.632L477.646 229.632L466.35 218.344ZM67.3181 272L136.006 203.312L164.694 232L96.0061 300.688L67.3181 272ZM150.406 390.008C146.87 393.54 141.142 393.54 137.606 390.008C134.173 386.624 134.133 381.098 137.517 377.665C137.546 377.635 137.576 377.605 137.606 377.576L144.11 371.128L156.806 383.672L150.406 390.008ZM174.302 413.824C170.771 417.274 165.129 417.267 161.606 413.808C158.171 410.414 158.137 404.878 161.532 401.442C161.557 401.417 161.581 401.392 161.606 401.368L168.078 394.968L180.702 407.512L174.302 413.824ZM198.406 437.6C194.867 441.123 189.145 441.123 185.606 437.6C182.173 434.216 182.133 428.69 185.517 425.257C185.546 425.227 185.576 425.197 185.606 425.168L192.054 418.768L204.67 431.312L198.406 437.6ZM222.406 461.392C218.874 464.873 213.202 464.873 209.67 461.392C206.237 458.008 206.197 452.482 209.581 449.049C209.61 449.019 209.64 448.989 209.67 448.96L216.07 442.6L228.686 455.144L222.406 461.392ZM342.418 389.628C342.403 389.643 342.389 389.657 342.374 389.672H342.406C338.89 393.162 333.218 393.162 329.702 389.672L317.702 377.72C314.572 374.601 309.505 374.61 306.386 377.74C303.267 380.87 303.276 385.937 306.406 389.056L318.406 401.008C321.877 404.454 321.896 410.062 318.45 413.532C318.435 413.547 318.421 413.561 318.406 413.576C314.89 417.066 309.218 417.066 305.702 413.576L293.702 401.624C290.572 398.505 285.505 398.514 282.386 401.644C279.267 404.774 279.276 409.841 282.406 412.96L294.406 424.912C297.877 428.358 297.896 433.966 294.45 437.436C294.435 437.451 294.421 437.465 294.406 437.48C290.89 440.97 285.218 440.97 281.702 437.48L269.702 425.528C266.572 422.409 261.505 422.418 258.386 425.548C255.267 428.678 255.276 433.745 258.406 436.864L270.406 448.816C273.877 452.262 273.896 457.87 270.45 461.34C270.435 461.355 270.421 461.369 270.406 461.384C266.886 464.871 261.214 464.871 257.694 461.384L107.334 312L179.334 240H205.022L146.302 300.096C143.239 303.23 143.268 308.245 146.366 311.344C156.281 321.358 169.594 327.285 183.67 327.952C197.834 328.702 211.651 323.4 221.678 313.368C222.032 313.018 222.35 312.635 222.63 312.224L225.526 307.976C242.801 321.596 265.32 326.648 286.758 321.712L342.374 377.104C345.844 380.55 345.864 386.158 342.418 389.628ZM336.302 348.44L302.742 315.016L308.806 310.4C309.091 310.178 309.358 309.935 309.606 309.672L317.606 301.672L306.294 290.36L298.686 297.968L291.766 303.184C270.406 312.321 245.618 307.216 229.606 290.384C226.482 287.259 221.417 287.259 218.292 290.382C217.94 290.734 217.622 291.117 217.342 291.528L209.782 302.592C202.945 309.064 193.761 312.462 184.358 312C177.004 311.621 169.893 309.236 163.798 305.104L227.374 240H300.694L372.694 312L336.302 348.44ZM384.006 300.688L315.318 232L344.006 203.312L412.694 272L384.006 300.688Z" fill="#F26D3D"/>
<path d="M104.006 264H88.0061V280H104.006V264Z" fill="#F26D3D"/>
<path d="M392.006 264H376.006V280H392.006V264Z" fill="#F26D3D"/>
<path d="M256.006 144C291.336 143.96 319.966 115.33 320.006 80C320.006 75.582 316.424 72 312.006 72H296.006C277.61 72.01 260.114 79.959 248.006 93.808V64H256.006C286.919 63.965 311.971 38.913 312.006 8C312.006 3.582 308.424 0 304.006 0H288.006C268.319 0.031 250.094 10.398 240.006 27.304C229.918 10.398 211.693 0.031 192.006 0H176.006C171.588 0 168.006 3.582 168.006 8C168.041 38.913 193.093 63.965 224.006 64H232.006V93.808C219.898 79.959 202.402 72.01 184.006 72H168.006C163.588 72 160.006 75.582 160.006 80C160.046 115.33 188.676 143.96 224.006 144H232.006V156.688L180.694 208H203.318L240.006 171.312L276.694 208H299.318L248.006 156.688V144H256.006ZM296.006 88H303.342C299.407 111.08 279.419 127.971 256.006 128H248.67C252.604 104.92 272.592 88.029 296.006 88ZM288.006 16H295.206C291.381 34.613 275.008 47.979 256.006 48H248.806C252.63 29.387 269.004 16.021 288.006 16ZM224.006 48C205.004 47.979 188.631 34.613 184.806 16H192.006C211.008 16.021 227.381 29.387 231.206 48H224.006ZM224.006 128C200.593 127.971 180.605 111.08 176.67 88H184.006C207.419 88.029 227.407 104.92 231.342 128H224.006Z" fill="#F26D3D"/>
</g>
<defs>
<clipPath id="clip0">
<rect width="479.995" height="479.995" fill="white"/>
</clipPath>
</defs>
</svg>
